icons/1_Primary/Bugcrowd.svg

<svg xmlns="http://www.w3.org/2000/svg" width="1024" height="1024" fill="none">
   <g clip-path="url(#a)">
      <path fill="#F8C18C" d="M512 1024c282.77 0 512-229.23 512-512S794.77 0 512 0 0 229.23 0 512s229.23 512 512 512Z"/>
      <path fill="#fff" d="M338.78 529.15a3.995 3.995 0 0 1-1-2v-52.07h-17.57v32a28.596 28.596 0 0 1-1.49 9.13 26.984 26.984 0 0 1-4 7.52 19.132 19.132 0 0 1-6.09 5 23.807 23.807 0 0 1-8.52 2 8.524 8.524 0 0 1-6.55-2 12.726 12.726 0 0 1-3.5-5 28.34 28.34 0 0 1-1-7.52v-32.27a7.347 7.347 0 0 0-5.244-8.851 7.357 7.357 0 0 0-3.756-.009H263v14.55h5.48a4.411 4.411 0 0 1 2.53.52 2.998 2.998 0 0 1 1 2.5v27.12a30.623 30.623 0 0 0 3 15 17.625 17.625 0 0 0 8.65 8.4 26.488 26.488 0 0 0 13.06 2.5 47.865 47.865 0 0 0 8.52-1 18.257 18.257 0 0 0 7-3.5 55.385 55.385 0 0 0 5.54-4.54 20.765 20.765 0 0 0 3.5-5.51h.49v5a6.456 6.456 0 0 0 2.53 5.51 9.743 9.743 0 0 0 7 2h16.07v-14.48h-5.66c-2 .49-2.5.49-3 0m-101.92-10a18.589 18.589 0 0 1-9.5 10.53 11.109 11.109 0 0 1-7 1.52c-2.658.174-5.3-.529-7.52-2a17.586 17.586 0 0 1-5.54-5 30.97 30.97 0 0 1-3.5-7 37.885 37.885 0 0 1-1-8 30.224 30.224 0 0 1 1.49-10 23.838 23.838 0 0 1 4-7 22.299 22.299 0 0 1 5.42-4 14.769 14.769 0 0 1 6.51-1 17.14 17.14 0 0 1 9.13 2.5 22.26 22.26 0 0 1 6.09 7.52 27.727 27.727 0 0 1 2 11.57 17.747 17.747 0 0 1-.49 10.53m10.53-35.65a31.202 31.202 0 0 0-10-7.52 35.246 35.246 0 0 0-13.06-2.53 45.639 45.639 0 0 0-8 1 18.276 18.276 0 0 0-5.51 2 13.888 13.888 0 0 0-4 3c-1 1-2 1.52-2.5 2.53-.52 0-.52.49-1 1v-25.79a8.16 8.16 0 0 0-2.56-7c-1-2-3.5-3-7-2.65h-16.65v14.7h5.51a4.687 4.687 0 0 1 2.53.52 2.998 2.998 0 0 1 1.1 2.5v78.82h16v-8a24.065 24.065 0 0 0 3 3.5 28.79 28.79 0 0 0 4 3 31.817 31.817 0 0 0 6.09 2.53c2.626.6 5.306.935 8 1a37.304 37.304 0 0 0 13.06-2.53 25.57 25.57 0 0 0 10.58-7.54 37.298 37.298 0 0 0 7-11.57 47.664 47.664 0 0 0 2.53-15 43.016 43.016 0 0 0-2-14.58 37.483 37.483 0 0 0-7-11.54m157 34.22a26.744 26.744 0 0 1-3.53 6.51 19.994 19.994 0 0 1-5.51 3.5c-1.98.59-4.026.926-6.09 1a14.549 14.549 0 0 1-9.53-3 22.373 22.373 0 0 1-6.09-7.55A24.337 24.337 0 0 1 372 507c-.209-3.45.48-6.895 2-10a14 14 0 0 1 5.51-6.55 17.294 17.294 0 0 1 9.13-2.5c2.363.079 4.71.414 7 1a11.814 11.814 0 0 1 5.54 3 18.008 18.008 0 0 1 4 6.09 28.024 28.024 0 0 1 1.52 10 40.32 40.32 0 0 1-2.13 9.56m6.08-41.6a6.096 6.096 0 0 0-2.53 2.5 7.356 7.356 0 0 0-1 3v2h-.49a1.549 1.549 0 0 0-.52-1c-.49-1-1.49-1.49-2.5-2.5a28.79 28.79 0 0 0-4-3 31.817 31.817 0 0 0-6.09-2.53 45.637 45.637 0 0 0-8.52-1 38.31 38.31 0 0 0-13.58 2.5 24.136 24.136 0 0 0-10 7.52 38.902 38.902 0 0 0-6.09 11.05 41.914 41.914 0 0 0-2 13.55c-.158 4.61.52 9.211 2 13.58a38.889 38.889 0 0 0 6.09 11.05 25.81 25.81 0 0 0 10 7.52 31.012 31.012 0 0 0 12.747 3.012 31.015 31.015 0 0 0 12.853-2.522 25.522 25.522 0 0 0 8-6.51h.4v10a20.88 20.88 0 0 1-1.52 8 10.754 10.754 0 0 1-4.38 4.93 15.213 15.213 0 0 1-6.51 3 37.756 37.756 0 0 1-7.55 1v15.07a87.032 87.032 0 0 0 11.05-1 34.203 34.203 0 0 0 10-3.5 33.5 33.5 0 0 0 8.52-6.09 22.593 22.593 0 0 0 5.57-9.53 33.494 33.494 0 0 0 2-12.57v-51.04c.49-1 .49-1.52 1-2a2.999 2.999 0 0 1 2-.49h5.51v-14.92h-16.53a5.391 5.391 0 0 0-4 1m149.6-2c-3.479.07-6.898.924-10 2.5a18.903 18.903 0 0 0-7.52 6.55 31.607 31.607 0 0 0-5 9.13h-.49v-8.52a8.554 8.554 0 0 0-2.53-6.51 9.738 9.738 0 0 0-7-2.13h-16v14.55H517a4.353 4.353 0 0 1 2.5.52 2.859 2.859 0 0 1 1 2.5v51.73h17.57v-27.8c-.09-2.044.085-4.091.52-6.09.49-2 .49-3.53 1-5.54a16.561 16.561 0 0 1 3.5-6.51 17.69 17.69 0 0 1 10-7 23.732 23.732 0 0 1 6.09-.52h4v-17h-3M745 476.42a11.747 11.747 0 0 0-3.5 5.54l-10.1 38.78c-.52 1-.52 2.53-1 3.53 0 1.49-.52 2.5-.52 4h-.49v-1.16a22.252 22.252 0 0 1-.52-2.53c-.49-1-.49-2.5-1-3.5l-13-45.18h-15.61l-13 45.18c-.52 1-.52 2.5-1 3.5a22.252 22.252 0 0 1-.52 2.53v1h-.49v-1a22.252 22.252 0 0 1-.52-2.53 9.129 9.129 0 0 0-1-3.5l-10.53-38.66a8.921 8.921 0 0 0-3.53-5.51 12.42 12.42 0 0 0-6.51-1.52h-12.22V490H652a3.928 3.928 0 0 1 2.53.49 6.913 6.913 0 0 1 1.49 2l17.08 52.21h20.09l12.18-39.58c.52-1 .52-2.5 1-3.5l.52-3v-1h.49v1c.258.983.432 1.987.52 3 .49 1 .49 2.5 1 3.5l12.18 39.58h20.06l17.08-52.21a6.913 6.913 0 0 1 1.49-2 3.927 3.927 0 0 1 2.53-.49h2v-14.92h-12.13a13.36 13.36 0 0 0-7 1.49m74.8 43.2a23.398 23.398 0 0 1-4 7 21.704 21.704 0 0 1-5.51 3.87 15.437 15.437 0 0 1-6.51 1.52 17.164 17.164 0 0 1-9.13-2.53 22.25 22.25 0 0 1-6.09-7.52 28.187 28.187 0 0 1-2-11.54 24.34 24.34 0 0 1 1.52-9.13 14.458 14.458 0 0 1 4-6.45 16.291 16.291 0 0 1 12.54-5.51 12.184 12.184 0 0 1 7.52 2 17.607 17.607 0 0 1 5.63 4.9 30.97 30.97 0 0 1 3.5 7 37.893 37.893 0 0 1 1 8 50.943 50.943 0 0 0-2.53 8l.06.39Zm22.1 10a2.6 2.6 0 0 1-2-1 3.81 3.81 0 0 1-1-2v-70a8.166 8.166 0 0 0-2.62-7 9.92 9.92 0 0 0-7-2.13h-16.64v14.7h5.51c1 0 1.52 0 2 .49a3.008 3.008 0 0 1 1 2.53v16h-.52a1.583 1.583 0 0 0-.49-1c-.49-1-1.49-1.49-2-2a10.416 10.416 0 0 0-4-2.5 27.385 27.385 0 0 0-6.09-2 42.341 42.341 0 0 0-8-1 37.834 37.834 0 0 0-13 2.5A21.31 21.31 0 0 0 777 483a33.004 33.004 0 0 0-6.55 11.54 46.85 46.85 0 0 0-2.5 15.07c.068 4.914.739 9.8 2 14.55a28.778 28.778 0 0 0 6.51 11.54 31.258 31.258 0 0 0 10 7.55 35.891 35.891 0 0 0 13.06 2.5 47.876 47.876 0 0 0 8.52-1 11.142 11.142 0 0 0 6.09-3 13.513 13.513 0 0 0 4-3.5 27.062 27.062 0 0 0 3-4h.49v2.53a7.423 7.423 0 0 0 1 3.5 5.21 5.21 0 0 0 3 2.5c1.595.625 3.287.963 5 1h16v-14.63l-5 .52.39.1Zm-343-7.18a18.41 18.41 0 0 1-3 2.53l-4.51 3c-2 1-4 1.49-6.09 2.5-2.283.62-4.635.956-7 1a20.866 20.866 0 0 1-8-1.49 19.85 19.85 0 0 1-6.94-4 20.519 20.519 0 0 1-5-6.55 24.339 24.339 0 0 1-2-9.53 25.793 25.793 0 0 1 2.5-11.05 15.562 15.562 0 0 1 7.55-7.52 20.242 20.242 0 0 1 11.05-3 10.209 10.209 0 0 1 3.53.49 9.129 9.129 0 0 1 3.5 1c.909.375 1.761.876 2.53 1.49a4.005 4.005 0 0 1 1 2.5v4h15.56v-9.13a8.801 8.801 0 0 0-2-6.09 12.937 12.937 0 0 0-4.54-4.54l-6.09-3c-2-.49-4.51-1-7-1.49a23.732 23.732 0 0 0-6.09-.52 39.85 39.85 0 0 0-16.07 3 30.079 30.079 0 0 0-12.18 8 28.993 28.993 0 0 0-7.72 11.62 40.41 40.41 0 0 0 0 28.13 34.999 34.999 0 0 0 7.52 11.54 39.058 39.058 0 0 0 12.18 8 39.85 39.85 0 0 0 16.07 3 37.504 37.504 0 0 0 10.55-1.48 59.23 59.23 0 0 0 8.52-3 30.895 30.895 0 0 0 6.09-3.53 46.664 46.664 0 0 0 5-4.51l-7.52-12.18c-.52-.52-1-.52-1.52.49m127.56-3.65a21.306 21.306 0 0 1-4.51 7 19.419 19.419 0 0 1-6.45 4.51 22.626 22.626 0 0 1-8 1.49 20.731 20.731 0 0 1-8-1.49 15.216 15.216 0 0 1-6.55-4.51 21.306 21.306 0 0 1-4.51-7 27.885 27.885 0 0 1 0-18.08 21.306 21.306 0 0 1 4.51-7 19.017 19.017 0 0 1 6.55-4.51 22.64 22.64 0 0 1 8-1.52 21.31 21.31 0 0 1 15.07 6.09 17.011 17.011 0 0 1 4.54 7 24.364 24.364 0 0 1 1.49 9.13 57.106 57.106 0 0 1-2 9.13m8-35.13a32.237 32.237 0 0 0-12.54-7.52 39.576 39.576 0 0 0-15.22-2.53 49.502 49.502 0 0 0-15.07 2.53 36.53 36.53 0 0 0-12.54 7.52 26.817 26.817 0 0 0-8 11.54 36.165 36.165 0 0 0-3 14.58 34.266 34.266 0 0 0 3 14.55 36.167 36.167 0 0 0 8 11.54 28.996 28.996 0 0 0 12.54 7.55 39.582 39.582 0 0 0 15.07 2.5 47.121 47.121 0 0 0 15.22-2.5 36.538 36.538 0 0 0 12.54-7.55 32.575 32.575 0 0 0 8.52-11.54 35.884 35.884 0 0 0 3-14.55 34.433 34.433 0 0 0-3-14.58 32.855 32.855 0 0 0-8.52-11.54Z"/>
   </g>
   <defs>
      <clipPath id="a">
         <path fill="#fff" d="M0 0h1024v1024H0z"/>
      </clipPath>
   </defs>
</svg>

<svg width="1024" height="1024" viewBox="0 0 1024 1024" fill="none" xmlns="http://www.w3.org/2000/svg">
<g clip-path="url(#clip0_2_1740)">
<path d="M512 1024C794.77 1024 1024 794.77 1024 512C1024 229.23 794.77 0 512 0C229.23 0 0 229.23 0 512C0 794.77 229.23 1024 512 1024Z" fill="#F8C18C"/>
<path d="M338.78 529.15C338.263 528.592 337.916 527.898 337.78 527.15V475.08H320.21V507.08C320.212 510.184 319.709 513.268 318.72 516.21C317.793 518.913 316.443 521.451 314.72 523.73C313.059 525.801 310.985 527.504 308.63 528.73C305.938 529.917 303.049 530.596 300.11 530.73C298.939 530.868 297.753 530.761 296.625 530.417C295.498 530.073 294.454 529.498 293.56 528.73C292.005 527.372 290.804 525.656 290.06 523.73C289.391 521.28 289.055 518.75 289.06 516.21V483.94C289.363 482.703 289.34 481.409 288.992 480.184C288.645 478.959 287.985 477.846 287.077 476.953C286.17 476.059 285.046 475.417 283.816 475.089C282.586 474.761 281.292 474.758 280.06 475.08H263V489.63H268.48C269.356 489.547 270.237 489.728 271.01 490.15C271.36 490.46 271.632 490.847 271.806 491.282C271.98 491.716 272.05 492.184 272.01 492.65V519.77C271.725 524.943 272.757 530.104 275.01 534.77C276.816 538.5 279.879 541.474 283.66 543.17C287.73 545.1 292.225 545.961 296.72 545.67C299.584 545.592 302.436 545.258 305.24 544.67C307.799 544.023 310.187 542.829 312.24 541.17C314.183 539.778 316.033 538.261 317.78 536.63C319.23 534.989 320.411 533.13 321.28 531.12H321.77V536.12C321.708 537.175 321.906 538.23 322.347 539.191C322.788 540.152 323.459 540.989 324.3 541.63C326.287 543.176 328.796 543.893 331.3 543.63H347.37V529.15H341.71C339.71 529.64 339.21 529.64 338.71 529.15M236.79 519.15C235.139 523.778 231.724 527.563 227.29 529.68C225.188 530.946 222.727 531.48 220.29 531.2C217.632 531.374 214.99 530.671 212.77 529.2C210.587 527.949 208.698 526.244 207.23 524.2C205.772 522.024 204.596 519.672 203.73 517.2C203.113 514.577 202.778 511.895 202.73 509.2C202.662 505.807 203.165 502.426 204.22 499.2C205.146 496.657 206.499 494.289 208.22 492.2C209.814 490.6 211.641 489.251 213.64 488.2C215.707 487.381 217.932 487.039 220.15 487.2C223.368 487.16 226.532 488.026 229.28 489.7C231.837 491.73 233.916 494.297 235.37 497.22C236.855 500.89 237.537 504.835 237.37 508.79C238.277 512.269 238.106 515.941 236.88 519.32M247.41 483.67C244.619 480.514 241.217 477.956 237.41 476.15C233.257 474.485 228.824 473.627 224.35 473.62C221.659 473.717 218.982 474.051 216.35 474.62C214.418 474.986 212.557 475.661 210.84 476.62C209.336 477.37 207.981 478.386 206.84 479.62C205.84 480.62 204.84 481.14 204.34 482.15C203.82 482.15 203.82 482.64 203.34 483.15V457.36C203.5 456.074 203.351 454.768 202.906 453.551C202.461 452.333 201.732 451.24 200.78 450.36C199.78 448.36 197.28 447.36 193.78 447.71H177.13V462.41H182.64C183.515 462.343 184.392 462.523 185.17 462.93C185.538 463.23 185.83 463.613 186.021 464.048C186.212 464.482 186.297 464.956 186.27 465.43V544.25H202.27V536.25C203.156 537.51 204.16 538.682 205.27 539.75C206.514 540.864 207.852 541.868 209.27 542.75C211.207 543.802 213.248 544.65 215.36 545.28C217.986 545.88 220.666 546.215 223.36 546.28C227.83 546.226 232.253 545.369 236.42 543.75C240.537 542.19 244.181 539.592 247 536.21C250.019 532.812 252.391 528.891 254 524.64C255.641 519.808 256.495 514.743 256.53 509.64C256.706 504.701 256.029 499.769 254.53 495.06C252.914 490.821 250.542 486.911 247.53 483.52M404.53 517.74C403.661 520.063 402.473 522.254 401 524.25C399.367 525.711 397.506 526.893 395.49 527.75C393.51 528.34 391.464 528.676 389.4 528.75C385.969 528.906 382.593 527.844 379.87 525.75C377.312 523.709 375.234 521.132 373.78 518.2C372.313 514.659 371.703 510.821 372 507C371.791 503.55 372.48 500.105 374 497C375.108 494.295 377.034 492.005 379.51 490.45C382.261 488.784 385.423 487.918 388.64 487.95C391.003 488.029 393.35 488.364 395.64 488.95C397.724 489.43 399.639 490.467 401.18 491.95C402.914 493.686 404.276 495.759 405.18 498.04C406.289 501.253 406.804 504.642 406.7 508.04C406.381 511.301 405.666 514.512 404.57 517.6M410.65 476C409.577 476.563 408.696 477.434 408.12 478.5C407.573 479.416 407.232 480.439 407.12 481.5V483.5H406.63C406.588 483.113 406.403 482.756 406.11 482.5C405.62 481.5 404.62 481.01 403.61 480C402.366 478.886 401.028 477.882 399.61 477C397.673 475.948 395.632 475.1 393.52 474.47C390.718 473.87 387.865 473.535 385 473.47C380.359 473.474 375.758 474.321 371.42 475.97C367.484 477.554 364.034 480.148 361.42 483.49C358.802 486.818 356.745 490.55 355.33 494.54C353.925 498.917 353.249 503.494 353.33 508.09C353.172 512.7 353.85 517.301 355.33 521.67C356.745 525.66 358.802 529.393 361.42 532.72C364.086 536.009 367.52 538.591 371.42 540.24C375.406 542.14 379.752 543.167 384.167 543.252C388.582 543.336 392.964 542.476 397.02 540.73C400.102 539.127 402.824 536.912 405.02 534.22H405.42V544.22C405.443 546.961 404.927 549.679 403.9 552.22C402.992 554.282 401.46 556.006 399.52 557.15C397.62 558.654 395.388 559.683 393.01 560.15C390.533 560.737 388.004 561.072 385.46 561.15V576.22C389.161 576.122 392.852 575.788 396.51 575.22C400.005 574.58 403.378 573.399 406.51 571.72C409.652 570.149 412.527 568.094 415.03 565.63C417.646 562.963 419.56 559.688 420.6 556.1C422.064 552.076 422.743 547.809 422.6 543.53V492.49C423.09 491.49 423.09 490.97 423.6 490.49C424.188 490.096 424.896 489.922 425.6 490H431.11V475.08H414.58C413.167 474.87 411.728 475.23 410.58 476.08M560.18 474.08C556.701 474.15 553.282 475.004 550.18 476.58C547.132 478.051 544.535 480.313 542.66 483.13C540.5 485.876 538.811 488.961 537.66 492.26H537.17V483.74C537.23 482.538 537.036 481.337 536.6 480.215C536.164 479.093 535.496 478.076 534.64 477.23C532.672 475.637 530.161 474.873 527.64 475.1H511.64V489.65H517C517.866 489.569 518.737 489.751 519.5 490.17C519.859 490.473 520.138 490.859 520.312 491.295C520.487 491.731 520.551 492.203 520.5 492.67V544.4H538.07V516.6C537.98 514.556 538.155 512.509 538.59 510.51C539.08 508.51 539.08 506.98 539.59 504.97C540.251 502.564 541.448 500.339 543.09 498.46C545.487 495.014 549.032 492.533 553.09 491.46C555.089 491.025 557.136 490.85 559.18 490.94H563.18V473.94H560.18M745 476.42C743.331 477.897 742.118 479.819 741.5 481.96L731.4 520.74C730.88 521.74 730.88 523.27 730.4 524.27C730.4 525.76 729.88 526.77 729.88 528.27H729.39V527.11C729.168 526.277 728.994 525.433 728.87 524.58C728.38 523.58 728.38 522.08 727.87 521.08L714.87 475.9H699.26L686.26 521.08C685.74 522.08 685.74 523.58 685.26 524.58C685.136 525.433 684.962 526.277 684.74 527.11V528.11H684.25V527.11C684.028 526.277 683.854 525.433 683.73 524.58C683.635 523.358 683.295 522.168 682.73 521.08L672.2 482.42C671.764 480.203 670.502 478.233 668.67 476.91C666.68 475.818 664.428 475.292 662.16 475.39H649.94V490H652C652.874 489.874 653.766 490.047 654.53 490.49C655.144 491.061 655.649 491.739 656.02 492.49L673.1 544.7H693.19L705.37 505.12C705.89 504.12 705.89 502.62 706.37 501.62L706.89 498.62V497.62H707.38V498.62C707.638 499.603 707.812 500.607 707.9 501.62C708.39 502.62 708.39 504.12 708.9 505.12L721.08 544.7H741.14L758.22 492.49C758.591 491.739 759.096 491.061 759.71 490.49C760.474 490.047 761.365 489.874 762.24 490H764.24V475.08H752.11C749.684 474.931 747.264 475.446 745.11 476.57M819.91 519.77C818.992 522.317 817.638 524.686 815.91 526.77C814.286 528.339 812.427 529.644 810.4 530.64C808.367 531.616 806.145 532.135 803.89 532.16C800.669 532.19 797.506 531.313 794.76 529.63C792.203 527.601 790.124 525.033 788.67 522.11C787.203 518.446 786.521 514.514 786.67 510.57C786.588 507.458 787.104 504.358 788.19 501.44C788.925 498.972 790.306 496.746 792.19 494.99C793.755 493.216 795.687 491.805 797.853 490.853C800.018 489.901 802.365 489.433 804.73 489.48C807.388 489.307 810.029 490.009 812.25 491.48C814.455 492.692 816.375 494.363 817.88 496.38C819.338 498.556 820.514 500.908 821.38 503.38C821.997 506.004 822.332 508.685 822.38 511.38C821.318 513.973 820.472 516.648 819.85 519.38L819.91 519.77ZM842.01 529.77C841.623 529.763 841.243 529.67 840.896 529.497C840.55 529.324 840.247 529.076 840.01 528.77C839.484 528.218 839.136 527.522 839.01 526.77V456.77C839.162 455.479 839.004 454.17 838.548 452.952C838.093 451.735 837.353 450.644 836.39 449.77C834.413 448.194 831.909 447.432 829.39 447.64H812.75V462.34H818.26C819.26 462.34 819.78 462.34 820.26 462.83C820.614 463.143 820.889 463.536 821.063 463.975C821.237 464.415 821.304 464.889 821.26 465.36V481.36H820.74C820.703 480.978 820.529 480.623 820.25 480.36C819.76 479.36 818.76 478.87 818.25 478.36C817.125 477.232 815.757 476.376 814.25 475.86C812.305 474.957 810.261 474.286 808.16 473.86C805.531 473.273 802.852 472.938 800.16 472.86C795.713 472.923 791.313 473.769 787.16 475.36C783.075 476.814 779.53 479.479 777 483C774.058 486.364 771.829 490.29 770.45 494.54C768.798 499.393 767.953 504.484 767.95 509.61C768.018 514.524 768.689 519.41 769.95 524.16C771.193 528.461 773.422 532.412 776.46 535.7C779.25 538.866 782.651 541.434 786.46 543.25C790.62 544.89 795.049 545.737 799.52 545.75C802.384 545.672 805.235 545.338 808.04 544.75C810.333 544.408 812.461 543.359 814.13 541.75C815.682 540.86 817.041 539.67 818.13 538.25C819.251 537.012 820.256 535.673 821.13 534.25H821.62V536.78C821.658 538.012 822.001 539.214 822.62 540.28C823.258 541.471 824.334 542.367 825.62 542.78C827.215 543.405 828.907 543.743 830.62 543.78H846.62V529.15L841.62 529.67L842.01 529.77ZM499.01 522.59C498.103 523.538 497.097 524.386 496.01 525.12L491.5 528.12C489.5 529.12 487.5 529.61 485.41 530.62C483.127 531.24 480.775 531.576 478.41 531.62C475.671 531.653 472.953 531.147 470.41 530.13C467.849 529.282 465.487 527.921 463.47 526.13C461.377 524.307 459.677 522.079 458.47 519.58C457.168 516.57 456.488 513.329 456.47 510.05C456.474 506.227 457.328 502.453 458.97 499C460.523 495.683 463.197 493.02 466.52 491.48C469.838 489.437 473.675 488.396 477.57 488.48C478.766 488.435 479.961 488.601 481.1 488.97C482.322 489.065 483.512 489.405 484.6 489.97C485.509 490.345 486.361 490.846 487.13 491.46C487.742 492.153 488.095 493.036 488.13 493.96V497.96H503.69V488.83C503.813 486.621 503.098 484.446 501.69 482.74C500.582 480.869 499.021 479.308 497.15 478.2L491.06 475.2C489.06 474.71 486.55 474.2 484.06 473.71C482.061 473.275 480.014 473.1 477.97 473.19C472.463 473.069 466.992 474.09 461.9 476.19C457.246 477.818 453.063 480.565 449.72 484.19C446.239 487.378 443.589 491.366 442 495.81C438.631 504.884 438.631 514.866 442 523.94C443.717 528.247 446.274 532.169 449.52 535.48C453.042 538.887 457.174 541.601 461.7 543.48C466.792 545.58 472.263 546.601 477.77 546.48C481.339 546.491 484.892 545.993 488.32 545C491.232 544.218 494.08 543.216 496.84 542C498.998 541.059 501.041 539.875 502.93 538.47C504.703 537.089 506.374 535.582 507.93 533.96L500.41 521.78C499.89 521.26 499.41 521.26 498.89 522.27M626.45 518.62C625.422 521.227 623.889 523.606 621.94 525.62C620.12 527.548 617.925 529.083 615.49 530.13C612.935 531.106 610.225 531.611 607.49 531.62C604.751 531.657 602.032 531.15 599.49 530.13C596.945 529.234 594.685 527.677 592.94 525.62C590.991 523.606 589.458 521.227 588.43 518.62C586.422 512.761 586.422 506.4 588.43 500.54C589.458 497.933 590.991 495.554 592.94 493.54C594.781 491.592 597.013 490.055 599.49 489.03C602.043 488.044 604.753 487.529 607.49 487.51C613.121 487.469 618.538 489.659 622.56 493.6C624.631 495.52 626.191 497.926 627.1 500.6C628.175 503.52 628.681 506.619 628.59 509.73C628.174 512.823 627.505 515.876 626.59 518.86M634.59 483.73C631.041 480.296 626.751 477.723 622.05 476.21C617.192 474.376 612.02 473.517 606.83 473.68C601.706 473.738 596.622 474.592 591.76 476.21C587.116 477.846 582.85 480.404 579.22 483.73C575.576 486.798 572.814 490.781 571.22 495.27C569.22 499.869 568.198 504.835 568.22 509.85C568.144 514.861 569.168 519.828 571.22 524.4C573.107 528.732 575.825 532.653 579.22 535.94C582.686 539.488 587.003 542.087 591.76 543.49C596.573 545.294 601.692 546.143 606.83 545.99C612.006 545.998 617.148 545.154 622.05 543.49C626.696 541.845 630.962 539.277 634.59 535.94C638.252 532.774 641.163 528.832 643.11 524.4C645.114 519.812 646.136 514.856 646.11 509.85C646.185 504.829 645.161 499.853 643.11 495.27C641.155 490.843 638.245 486.902 634.59 483.73Z" fill="white"/>
</g>
<defs>
<clipPath id="clip0_2_1740">
<rect width="1024" height="1024" fill="white"/>
</clipPath>
</defs>
</svg>
